X:210
R:Visa
B:August Bondesons Visbok nr 210
Z:[[Profiles/Tommy Rådberg]]
T:I låga ryttartorpet
A:Wilhelm von Braun
M:2/4
L:1/16
K:G
D2|"G"D3GG2G2|B4G2F2|"D7"D2F2A2A2|A4z2F2|D2F2A2B2|c4A2F2|"G"D3GG2G2|G4z2G2|G2A2B2c2|d4B2G2|"C"c2c2E2E2|E4z2E2|"D7"D2D2F2A2|c4A2F2|"G"D3GG2G2|G4z2|]

